X:1
T:Che posso far
T:Che posso far
T:Giovanni Giacomo de Antiquis
T:Source : Secondo libro delle villanelle a 3 voci---Venetia---Figlio d'A.Gardano---1574. Editor : André Vierendeels (23/03/16).
T:Notes : Original clefs : C1, C2, C4 Editorial accidentals above the staff "Alla napolitana" Music by composers from Bari, collected by G.de Antiquis   
T:©
T:©
C:Giovanni Giacomo de Antiquis
Z:©
%%score [ 1 2 3 ]
L:1/8
Q:1/4=80
M:4/4
K:C
V:1 treble nm="Soprano" snm="S"
V:2 treble nm="Alto" snm="A"
V:3 treble-8 nm="Tenor" snm="T"
V:1
 D4 D2 D2 | F4 E2 A2 | A2 A2 G4 | c4 B3 B | B2 c2 d4 | c4 A4 | G2 F2 E4 |[M:2/4] D4 :: %8
w: 1)Che pos- so|far, _ che|pos- so far|s'ho pers' il|1)mio the- so-|ro, il|mio the- so-|ro,|
w: 2)Chi gui- dar|quel vi- so,|chi gui- dar|quel vi- so'e|2)quel crin d'o-|ro, e|quel crin d'o-|ro,|
w: 3)L'a- mar tuo|pian- to, l'a-|mar tuo pian-|to sin qua|3)sen- to'e plo-|ro, qua|sen- to'e plo-|ro,|
w: 4)Chi de i|be- glio, chi|de i be-|gli'oc- chi toi|4)mi tien in|ban- do,|tien in ban-|do,|
[M:3/4] E2 A2 A2 |[M:4/4] A4 A2 F2 | F2 F2 F4 | A4 c4- | c2 c2 _B2 A2 | G4 F4 | A4 A4 | A2 G4 G2 | %16
w: di cui star|1)pri- vo, di|cui star pri-|vo'un ho-|* ra non vor-|re- i,|1)do- ve|spe- ran- za|
w: per fol- ti|2)bo- schi pen-|so so- spi-|ran- do|_ ne vai so-|let- ta|2)for- se,|so- let- ta|
w: hoi- me che|3)gran pa- va|ha- ver- tu|de- i,|_ o pur t'han-|no tro-|3)va- ta,|han- no tro-|
w: chi mi ti|4)to- glie hor|che vai la-|gri- man-|* do sen za|la guar-|4)di- a,|la guar- dia|
 G2 A2 F3 E | D2 F2 E4 |[M:2/4] D4 :| %19
w: mia do- ve'ho- *|* ra se-|i.|
w: for- se'an- chor _|_ er- ran-|do;|
w: va- ta'i lu- *|* pi re-|i.|
w: del tuo fi- *|* d'Or- lan-|do.|
V:2
 B,4 B,2 B,2 | D4 C2 F2 | F2 F2 E4- | E2 F2 G3 G | G2 E2 DEFG | A2 E2 F4 |"^#" D2 D4 C2 | %7
w: 1)Che pos- so|far, _ che|pos- so far|_ s'ho pers' il|1)mio the- so- * * *|* ro, il|mio the- so-|
w: 2)Chi gui- dar|quel vi- so,|chi gui- dar|_ quel vi- so'e|2)quel crin d'o- * * *|* ro, e|quel crin d'o-|
[M:2/4] D4 ::[M:3/4] C2 F2 F2 |[M:4/4] F4 F2 D2 | D2 D2 D4 | F4 E4- | E2 E2 D2 F2- | F2 E2 F4 | %14
w: ro,|di cui star|1)pri- vo, di|cui star pri-|vo'un ho-|* ra non vor-|* re- i,|
w: ro,|per fol- ti|2)bo- schi pen-|so so- spi-|ran- do|_ ne vai so-|* let- ta|
 F4 F4 | F2 E4 E2 | E2 F2 D3 C |"^#""^b" B,2 D4 C2 |[M:2/4] D4 :| %19
w: 1)do- ve|spe- ran- za|mia do- ve'ho- *|* ra se-|i.|
w: 2)for- se,|so- let- ta|for- se'an- chor _|_ er- ran-|do.|
V:3
 G4 G2 G2 | D4 A2 F2 | F2 F2 c4 | A4 G3 G |"^b" G2 A2 B4 | A4 F4 | G2 D2 A4 |[M:2/4] D4 :: %8
w: 3)L'a- mar tuo|pian- to, l'a-|mar tuo pian-|to sin qua|3)sen- to'e plo-|ro, qua|sen- to'e plo-|ro,|
w: 4)Chi de i|be- glio, chi|de i be-|gli'oc- chi toi|4)mi tien in|ban- do,|tien in ban-|do,|
[M:3/4] A2 F2 F2 |[M:4/4] F4 F2 _B2 | _B2 B2 B4 | F4 A4- | A2 A2 G2 F2 | c4 F4 | F4 F4 | F2 c4 c2 | %16
w: hoi- me che|3)gran pa- va|ha- ver tu|de- i,|_ o pur t'han-|no tro-|3)va- ta,|han- no tro-|
w: per fol- ti|4)to- glie hor|che vai la-|gri- man-|* do sen- za|la guar-|4)di- a,|so- let- ta|
"^b" c2 d2 B3 A |"^b" G2 B2 A4 |[M:2/4] D4 :| %19
w: va- ta'i lu- *|* pi re-|i.|
w: for- se'an- chor _|_ er- ran-|do.|

